icons/_assets/mention.svg

<?xml version="1.0" encoding="UTF-8"?>
<svg width="100px" height="100px" viewBox="0 0 100 100" version="1.1" xmlns="http://www.w3.org/2000/svg" xmlns:xlink="http://www.w3.org/1999/xlink">
    <title>mention</title>
    <g id="mention" stroke="none" stroke-width="1" fill="none" fill-rule="evenodd">
        <path d="M0,100 L100,100 L100,0 L0,0 L0,100 Z M1.34215577,98.6578442 L98.6578442,98.6578442 L98.6578442,1.34215577 L1.34215577,1.34215577 L1.34215577,98.6578442 Z" id="outline" fill="#EEEEEE" opacity="0"></path>
        <path d="M90.3752805,30.1024015 C87.9054411,24.1166181 83.8362286,18.7654483 78.6767601,14.8003434 C73.5446102,10.763906 67.3222043,8.1897855 60.888701,7.16284301 C57.6663615,6.66474515 54.3782093,6.5257697 51.1248261,6.81847906 C47.9211128,7.11487803 44.6875976,7.65479151 41.5732902,8.59318327 C29.1322037,12.4119335 18.4742693,21.2460987 12.3685878,32.60027 C10.8313022,35.4289739 9.57713533,38.4089519 8.63961459,41.4873196 C8.14912361,43.0197392 7.78156581,44.5890549 7.45001874,46.16452 C7.29976707,46.9577869 7.1495154,47.78795 7.04024146,48.5849066 L6.83286932,50.9437996 L6.72980413,52.124476 C6.6913099,52.5315634 6.66895841,52.9952249 6.66714307,53.4060019 C6.66150791,54.2484637 6.70745264,55.0405008 6.72111188,55.7845729 L6.73477112,56.9800077 C6.74967212,57.4153821 6.7869246,57.8347682 6.82914407,58.2443154 L7.10853767,60.5810707 C7.21036112,61.4653481 7.40159051,62.2795229 7.57667717,63.0408132 L7.82626878,64.169835 L8.14043136,65.3763387 C8.57504363,66.9395051 9.10527059,68.478074 9.73359575,69.9760572 C12.2406876,75.9864379 16.4042731,81.2847233 21.5848513,85.2498282 C26.7617043,89.2149331 32.9505829,91.8911329 39.4374814,92.8602714 C45.8908527,93.8232606 52.5429038,93.2981056 58.7677932,91.4483793 C61.8771335,90.514907 64.8883756,89.272737 67.7493661,87.753846 C69.1699273,86.9827168 70.5755875,86.1562433 71.9017758,85.2547477 C72.5661117,84.8095343 73.2242388,84.3544819 73.8699485,83.8649932 L74.8546557,83.1344496 C75.0061491,83.0348301 75.2358727,82.8023844 75.4295856,82.6080647 C75.630749,82.4039061 75.8269454,82.2095865 75.9759553,81.974681 C76.6042805,81.0658062 76.9085091,79.9343246 76.8029604,78.8262107 C76.7098292,77.734085 76.210646,76.6653269 75.4345526,75.8794392 C73.8736737,74.2547792 71.1753524,73.9411621 69.2965857,75.1993204 L67.3594568,76.6124424 L65.4397123,77.8509228 C64.1756115,78.708143 62.8320387,79.4288476 61.4710815,80.0794495 C56.0036592,82.6830869 49.881835,83.9732218 43.8444498,83.6128695 C40.8232736,83.4456071 37.8927452,82.8097636 35.0565898,81.7385458 C32.2353353,80.6833162 29.5730247,79.2246889 27.238536,77.3749626 C24.9313658,75.5055583 22.8340511,73.2684225 21.1874915,70.7926917 C20.3517942,69.5566711 19.6266126,68.2493179 19.0069797,66.8976894 C18.3848633,65.5694285 17.9477675,64.189513 17.4535513,62.7025986 C15.4754446,55.4684959 16.2403622,47.6957097 19.025606,40.7592358 C21.8220254,33.7809464 26.6772653,27.63282 32.771771,23.1474796 C35.8227491,20.9152633 39.1940985,19.083985 42.7529521,17.8209072 C46.3167727,16.5627489 50.0916906,15.8703314 53.8864766,15.7276664 C61.418928,15.4534051 69.0544446,18.0275256 74.719305,23.0023548 C77.5554605,25.4596375 79.896158,28.4838909 81.5750031,31.8328303 C83.2550899,35.1854594 84.2683574,38.8676939 84.6247394,42.6052726 C84.7985843,44.4759067 84.8097601,46.3699085 84.6793764,48.2491517 C84.6123219,49.1863136 84.4968392,50.0828898 84.2832583,50.9647074 C84.0796115,51.8157783 83.7406139,52.6557804 83.3308366,53.4761045 C81.714079,56.6934477 78.6606174,59.2466604 75.1390163,60.1764431 C74.2747588,60.4113485 73.3297875,60.5724616 72.5387932,60.5454045 C71.7453154,60.5109681 70.9580463,60.2219483 70.3235124,59.747218 C69.6840115,59.2687981 69.210905,58.6169663 68.9811814,57.8519864 C68.854523,57.454738 68.7887102,57.0574896 68.7688423,56.6356438 L68.7440073,55.2089931 L68.5651954,43.5867098 L68.3652737,31.8992434 C68.2373735,30.6976592 67.4364452,29.5920049 66.3350136,29.0963668 C65.2459994,28.5761313 63.8775917,28.6732911 62.8817087,29.3509502 C61.869683,29.983104 61.2537753,31.2449519 61.3257968,32.3604451 L61.3469065,33.8264516 C58.6461017,31.492156 55.2076979,30.0040118 51.640152,29.6657972 C47.6019832,29.2734683 43.4657162,30.2253886 40.0062026,32.2817333 C33.0213626,36.2935733 28.5138126,44.1536805 28.7075255,52.1675215 C28.7919644,56.155994 30.0597905,60.148156 32.4687842,63.3839473 C34.8628769,66.6258879 38.409313,69.0265966 42.3618011,69.9858961 C46.3080804,70.961184 50.5412039,70.5233499 54.2478256,68.936816 C57.6464935,67.4954069 60.5795054,65.1180657 62.8419727,62.2573852 C64.3693244,65.2066165 67.2712926,67.4511315 70.6488507,68.1558477 C74.382791,68.7732431 78.1018302,67.9590683 81.3788067,66.3590058 C84.6731676,64.7847706 87.4906969,62.259845 89.560693,59.270028 C90.6050042,57.7658954 91.428284,56.136316 92.0603344,54.4034274 C92.676242,52.6508609 92.9966134,50.8503294 93.1642495,49.068246 C93.736696,42.6753752 92.8674714,36.0881849 90.3752805,30.1024015 M47.1462612,61.7937238 C44.4864342,62.0925825 41.9718918,61.3288324 40.0595978,59.6389893 C37.898954,57.7289993 36.7093581,54.8904565 36.7093581,51.6460561 C36.7093581,44.9371085 41.7694866,38.9082796 47.989409,38.2060231 C48.3669008,38.1642075 48.7419091,38.1432997 49.1131922,38.1432997 C51.3508244,38.1432997 53.4344798,38.9119692 55.0748307,40.3607576 C57.2354745,42.2707476 58.4250704,45.1105203 58.4250704,48.3549207 C58.4250704,55.0626384 53.3649419,61.0914673 47.1462612,61.7937238" id="icon" fill="#000000"></path>
    </g>
</svg>

<svg width="100" height="100" xmlns="http://www.w3.org/2000/svg"><g id="mention" stroke="none" stroke-width="1" fill="none" fill-rule="evenodd"><path d="M90.375 30.102c-2.47-5.985-6.539-11.337-11.698-15.302-5.132-4.036-11.355-6.61-17.788-7.637-3.223-.498-6.51-.637-9.764-.345-3.204.297-6.437.837-9.552 1.775C29.133 12.412 18.474 21.246 12.37 32.6a47.78 47.78 0 0 0-3.73 8.887c-.49 1.533-.857 3.102-1.189 4.678-.15.793-.3 1.623-.41 2.42l-.207 2.359-.103 1.18c-.039.408-.061.871-.063 1.282-.005.842.04 1.635.054 2.379l.014 1.195c.015.435.052.855.094 1.264l.28 2.337c.101.884.293 1.699.468 2.46l.25 1.129.313 1.206a38.685 38.685 0 0 0 1.594 4.6c2.507 6.01 6.67 11.309 11.85 15.274 5.178 3.965 11.367 6.641 17.853 7.61 6.454.963 13.106.438 19.33-1.412a49.562 49.562 0 0 0 8.982-3.694 48.853 48.853 0 0 0 4.153-2.5c.664-.444 1.322-.9 1.968-1.389l.985-.73c.151-.1.38-.333.575-.527.2-.204.397-.398.546-.633.628-.91.933-2.04.827-3.149a4.842 4.842 0 0 0-1.368-2.947c-1.561-1.624-4.26-1.938-6.138-.68l-1.938 1.413-1.92 1.239c-1.263.857-2.607 1.578-3.968 2.228-5.467 2.604-11.59 3.894-17.627 3.534a29.342 29.342 0 0 1-8.787-1.874c-2.822-1.056-5.484-2.514-7.818-4.364-2.308-1.87-4.405-4.107-6.052-6.582a27.155 27.155 0 0 1-2.18-3.895c-.622-1.329-1.06-2.708-1.553-4.195-1.979-7.235-1.214-15.007 1.572-21.944 2.796-6.978 7.651-13.126 13.746-17.612 3.05-2.232 6.422-4.063 9.981-5.326 3.564-1.258 7.339-1.95 11.133-2.093 7.533-.275 15.168 2.3 20.833 7.274a28.789 28.789 0 0 1 6.856 8.83c1.68 3.353 2.693 7.036 3.05 10.773.174 1.87.185 3.765.054 5.644-.067.937-.182 1.834-.396 2.716-.203.85-.542 1.69-.952 2.511-1.617 3.217-4.67 5.77-8.192 6.7-.864.235-1.81.396-2.6.37a4.036 4.036 0 0 1-2.215-.799 3.69 3.69 0 0 1-1.343-1.895 4.664 4.664 0 0 1-.212-1.216l-.025-1.427-.179-11.622-.2-11.688a3.546 3.546 0 0 0-2.03-2.803c-1.089-.52-2.457-.423-3.453.255-1.012.632-1.628 1.894-1.556 3.01l.02 1.465c-2.7-2.334-6.138-3.822-9.706-4.16-4.038-.393-8.174.56-11.634 2.616-6.985 4.012-11.492 11.872-11.298 19.886.084 3.988 1.352 7.98 3.76 11.216 2.395 3.242 5.941 5.643 9.894 6.602 3.946.975 8.18.537 11.886-1.05 3.398-1.44 6.332-3.818 8.594-6.679 1.527 2.95 4.43 5.194 7.807 5.899 3.734.617 7.453-.197 10.73-1.797 3.294-1.574 6.112-4.1 8.182-7.089a21.261 21.261 0 0 0 2.5-4.867c.615-1.752.936-3.553 1.103-5.335.573-6.393-.297-12.98-2.789-18.966M47.146 61.794c-2.66.299-5.174-.465-7.086-2.155-2.161-1.91-3.35-4.749-3.35-7.993 0-6.709 5.06-12.738 11.28-13.44.377-.042.752-.063 1.123-.063 2.238 0 4.321.769 5.962 2.218 2.16 1.91 3.35 4.75 3.35 7.994 0 6.708-5.06 12.736-11.279 13.439" id="icon" fill="#000"/></g></svg>
